X:1
T: The Majician
C:Muriel A Johnstone
R:Reel
%Q: 232
K:D
M:4/4
L:1/8
|:((3A,B,C)|D2 D2 FE EF|D2 D2 BA AB|d2 BA BA FD|EF GA BA AB|
D2 D2 FE EF|D2 D2 BA AB|d2 BA BA FD|B,A, A,B, D2:|
GF|E2 E2 GF FG|E2 E2 B2 Bd|e2 BA GE Ec|d2 AG FD GF|
E2 E2 GF FG|E2 E2 B2 AB|d2 BA BA FD|B,A, A,B, D2 GF|
E2 E2 GF FG|E2 E2 B2 Bd|e3f ef ge|fe dB AG FE|
D2 D2 FE EF|D2 D2 BA AB|d2 BA BA Bd|Af fe d2 ||
